X:1
T: Mr Handel's Gigue
N:
C:
S:Play A1 A2 B1 B2 C1 C2 D1 D2 E1 E2 F1 F2
A:
O:
R:
M:6/8
K:Am
I:speed 150
%W: A1 & E1
% voice 1 (1 lines, 41 notes)
K:Am
M:6/8
L:1/16
e2 |a4 A2 a4 A2 a2 b2 c'2 a4 e2 f2 e2 d2 c2 d2 B2 c2 d2 e2 A2 B2 c2 |d2 e2 f2 B2 c2 d2 G4 c'2 b4 a2 g2 f2 e2 f2 e2 d2 c6c4e2|
%W: A2 & E2
% voice 1 (1 lines, 40 notes)
a4 A2 a4 A2 a2 b2 c'2 a4 e2 f2 e2 d2 c2 d2 B2 c2 d2 e2 A2 B2 c2 |d2 e2 f2 B2 c2 d2 G4 c'2 b4 a2 g2 f2 e2 f2 e2 d2 c6c4g2|
%W: B1 & F1
% voice 1 (1 lines, 37 notes)
c'4 c2 c'4 c2 B2 c2 d2 G4 e2 a4 A2 a4 A2 ^G2 A2 B2 E4 e2 |f2 e2 d2 c2 B2 A2 ^g6 a2 =g2 f2 e2 d2 c2 B2 A2 B2 A6A4 g2 |
%W: B2 & F2
% voice 1 (1 lines, 36 notes)
c'4 c2 c'4 c2 B2 c2 d2 G4 e2 a4 A2 a4 A2 ^G2 A2 B2 E4 e2 |f2 e2 d2 c2 B2 A2 ^g6 a2 =g2 f2 e2 d2 c2 B2 A2 B2 A6A4 |
%W: C1
% voice 1 (1 lines, 39 notes)
K:A
E2 |A4 c2 B4 d2 c2 d2 e2 A2 B2 c2 d2 e2 f2 e2 f2 d2 c6c4 e2 |f4 B2 B2 c2 d2 e4 A2 A2 B2 c2 d2 e2 d2 c2 d2 c2 B6B4 E2 |
%W: C2
% voice 1 (1 lines, 38 notes)
A4 c2 B4 d2 c2 d2 e2 A2 B2 c2 d2 e2 f2 e2 f2 d2 c6c4 e2 |f4 B2 B2 c2 d2 e4 A2 A2 B2 c2 d2 e2 d2 c2 d2 c2 B6B4 F2 |
%W: D1
% voice 1 (1 lines, 33 notes)
B4 B2 B4 c2 d6d4 B2 f4 f2 f4 g2 a4 A2 A4 B2 |c2 B2 A2 d6 e2 d2 c2 f4 d2 c2 d2 c2 B2 c2 B2 A6A4 F2 |
%W: D2
% voice 1 (1 lines, 32 notes)
B4 B2 B4 c2 d6d4 B2 f4 f2 f4 g2 a4 A2 A4 B2 |c2 B2 A2 d6 e2 d2 c2 f4 d2 c2 d2 c2 B2 c2 B2 A6A4 ||
